public/assets/images/patterns/hideout.svg

<svg viewBox="0 0 40 40" xmlns="http://www.w3.org/2000/svg"><path d="m0 38.59 2.83-2.83 1.41 1.41-2.83 2.83h-1.41zm0-37.19 2.83 2.83 1.41-1.41-2.83-2.82h-1.41v1.41zm38.59 38.6-2.83-2.83 1.41-1.41 2.83 2.83v1.41zm1.41-38.59-2.83 2.83-1.41-1.41 2.83-2.83h1.41zm-20 17.19 2.83-2.83 1.41 1.41-2.83 2.82 2.83 2.83-1.41 1.41-2.83-2.83-2.83 2.83-1.41-1.41 2.83-2.83-2.83-2.83 1.41-1.41 2.83 2.83z" fill-rule="evenodd"/></svg>

<svg xmlns="http://www.w3.org/2000/svg" width="100" height="100" viewBox="0 0 40 40"><path fill-rule="evenodd" d="M0 38.59l2.83-2.83 1.41 1.41L1.41 40H0zM0 1.4l2.83 2.83 1.41-1.41L1.41 0H0v1.41zM38.59 40l-2.83-2.83 1.41-1.41L40 38.59V40zM40 1.41l-2.83 2.83-1.41-1.41L38.59 0H40zM20 18.6l2.83-2.83 1.41 1.41L21.41 20l2.83 2.83-1.41 1.41L20 21.41l-2.83 2.83-1.41-1.41L18.59 20l-2.83-2.83 1.41-1.41L20 18.59z"/></svg>
